X: 21338
T: Kerfunten, The
R: jig
M: 6/8
K: Dmajor
|:D|F2 F FED|FGA Bcd|A2 A BAF|E2 E EDE|
F2 F FED|FGA Bcd|A2 A BAF|EFE D2:|
|:A|d2 d def|B2 B BAB|d2 d def|fed e2 A|
d3 def|B2 B BAB|AFA dAF|EFE D2:|

